gama.ui.shared/icons_svg/dark/views/perspective.reset.svg

<svg height="24.75" viewBox="-382.721 -3025.16 24.386 24.75" width="24.386" xmlns="http://www.w3.org/2000/svg"><g fill="none"><path d="m-365.54635-3024.7847h-13.6c-1.76731 0-3.2 1.4327-3.2 3.2v13.6c0 1.7673 1.43269 3.2 3.2 3.2h13.6c1.76732 0 3.2-1.4327 3.2-3.2v-13.6c0-1.7673-1.43268-3.2-3.2-3.2z" fill="#ff7a7c"/><path d="m-361.90993-3020.7847h-13.60001c-1.76731 0-3.19999 1.4327-3.19999 3.2v13.6c0 1.7673 1.43268 3.2 3.19999 3.2h13.60001c1.76731 0 3.2-1.4327 3.2-3.2v-13.6c0-1.7673-1.43269-3.2-3.2-3.2z" fill="#9f4c4d"/><path d="m-375.38864-3015.1014c0-.2306-.18116-.4116-.41176-.4116s-.41177.181-.41177.4116v4.1176c0 .2308.18117.4118.41177.4118h4.11764c.23059 0 .41176-.181.41176-.4118 0-.2305-.18117-.4117-.41176-.4117h-3.70588zm12.35294 9.0588c0 .2306.1894.4118.41177.4118.23059 0 .41176-.1894.41176-.4118 0-1.0212 0-1.5482-.00823-1.647-.2141-3.92-3.46706-7-7.40353-7h-.23057c-2.5612 0-4.93296 1.3176-6.2918 3.4916-.1235.1895-.06587.445.1318.5684.1894.1236.4447.0658.5682-.1318 1.20237-1.9271 3.31884-3.0966 5.5918-3.0966h.23057c3.5 0 6.39059 2.7425 6.58 6.2178 0 .0742 0 .6259.00823 1.6059z" fill="#fff"/></g></svg>

<?xml version="1.0" encoding="UTF-8" standalone="no"?>
<!DOCTYPE svg PUBLIC "-//W3C//DTD SVG 1.1//EN" "http://www.w3.org/Graphics/SVG/1.1/DTD/svg11.dtd">
<svg xmlns="http://www.w3.org/2000/svg" xmlns:xl="http://www.w3.org/1999/xlink" version="1.1" xmlns:dc="http://purl.org/dc/elements/1.1/" viewBox="-382.72135 -3025.1597 24.38641 24.75" width="24.38641" height="24.75">
  <defs/>
  <g id="SOURCES" stroke-opacity="1" fill="none" stroke="none" fill-opacity="1" stroke-dasharray="none">
    <title>SOURCES</title>
    <g id="SOURCES_Dark">
      <title>Dark</title>
      <g id="Graphic_11056">
        <path d="M -365.54635 -3024.7847 L -379.14635 -3024.7847 C -380.91366 -3024.7847 -382.34635 -3023.352 -382.34635 -3021.5847 L -382.34635 -3007.9847 C -382.34635 -3006.2174 -380.91366 -3004.7847 -379.14635 -3004.7847 L -365.54635 -3004.7847 C -363.77903 -3004.7847 -362.34635 -3006.2174 -362.34635 -3007.9847 L -362.34635 -3021.5847 C -362.34635 -3023.352 -363.77903 -3024.7847 -365.54635 -3024.7847 Z" fill="#ff7a7c"/>
      </g>
      <g id="Graphic_11055">
        <path d="M -361.90993 -3020.7847 L -375.50994 -3020.7847 C -377.27725 -3020.7847 -378.70993 -3019.352 -378.70993 -3017.5847 L -378.70993 -3003.9847 C -378.70993 -3002.2174 -377.27725 -3000.7847 -375.50994 -3000.7847 L -361.90993 -3000.7847 C -360.14262 -3000.7847 -358.70993 -3002.2174 -358.70993 -3003.9847 L -358.70993 -3017.5847 C -358.70993 -3019.352 -360.14262 -3020.7847 -361.90993 -3020.7847 Z" fill="#9f4c4d"/>
      </g>
      <g id="Graphic_11054">
        <path d="M -375.38864 -3015.1014 C -375.38864 -3015.332 -375.5698 -3015.513 -375.8004 -3015.513 C -376.031 -3015.513 -376.21217 -3015.332 -376.21217 -3015.1014 L -376.21217 -3010.9838 C -376.21217 -3010.753 -376.031 -3010.572 -375.8004 -3010.572 L -371.68276 -3010.572 C -371.45217 -3010.572 -371.271 -3010.753 -371.271 -3010.9838 C -371.271 -3011.2143 -371.45217 -3011.3955 -371.68276 -3011.3955 L -375.38864 -3011.3955 Z M -363.0357 -3006.0426 C -363.0357 -3005.812 -362.8463 -3005.6308 -362.62393 -3005.6308 C -362.39334 -3005.6308 -362.21217 -3005.8202 -362.21217 -3006.0426 C -362.21217 -3007.0638 -362.21217 -3007.5908 -362.2204 -3007.6896 C -362.4345 -3011.6096 -365.68746 -3014.6896 -369.62393 -3014.6896 L -369.8545 -3014.6896 C -372.4157 -3014.6896 -374.78746 -3013.372 -376.1463 -3011.198 C -376.2698 -3011.0085 -376.21217 -3010.753 -376.0145 -3010.6296 C -375.8251 -3010.506 -375.5698 -3010.5638 -375.4463 -3010.7614 C -374.24393 -3012.6885 -372.12746 -3013.858 -369.8545 -3013.858 L -369.62393 -3013.858 C -366.12393 -3013.858 -363.23334 -3011.1155 -363.04393 -3007.6402 C -363.04393 -3007.566 -363.04393 -3007.0143 -363.0357 -3006.0343 Z" fill="white"/>
      </g>
    </g>
  </g>
</svg>
